X: 47
T: Sarah (Mrs. John Angus) MacArthur's
T: Strathspey, A Mixolydian
L: 1/16
M: C
K: A Mixolydian
|: F| E3A A3F E3A A3G| FD3 D3F G3E F3D| E3A A3G F3G A3a| g3f e3d cA3 A3:| 
B,| A,3a a3g f2g2 a3f| g3f e3d cA3 B3B,| A,3a a3g f2g2 a3f| g3f e3d cA3 A3B,| 
A,3a a3g f2g2 a3f| g3f e3d cA3 B3F| E3A A3G F3G A3a| g3f e3d cA3 A3|| 
D: The Beatons of Mabou, Rounder 7011
